X:1
T:Croyland (Latrobe), 77.77.77
T:Croyland (Latrobe), 77.77.77
T:Christian Ignatius Latrobe, ca. 1795
T:Public Domain Courtesy of the Cyber Hymnal™
C:Christian Ignatius Latrobe, ca. 1795
Z:Public Domain
Z:Courtesy of the Cyber Hymnal™
%%score ( 1 2 ) ( 3 4 )
L:1/8
Q:1/4=108
M:4/4
K:D
V:1 treble 
V:2 treble 
V:3 bass 
V:4 bass 
V:1
|: [DF]2 F2 [DB]2 [DB]2 | [Gc]2 [Fc]2 [Fd]4 | [Fd]2 [DB]2 [EA]2 [DF]2 | [DE]2 [CG]2 [DF]4 :| %4
 [DA]2 [EA]2 [DF]2 [CE]2 | [B,D]2 [B,E]2 [CF]4 | [CG]2 [DF]2 [E^A]2 [FB]2 | [Gc]2 [F^A]2 [FB]4 |] %8
V:2
|: x2 F2 x4 | x8 | x8 | x8 :| x8 | x8 | x8 | x8 |] %8
V:3
|: [B,,B,]2 [A,,C]2 [G,,D]2 [F,,B,]2 | [E,,B,]2 [F,,^A,]2 [B,,B,]4 | %2
 [B,,B,]2 [B,,F,]2 [C,A,]2 [D,A,]2 | [G,,B,]2 [A,,A,]2 [D,A,]4 :| %4
 [F,A,]2 [C,A,]2 [D,A,]2 [A,,A,]2 | F,2 [G,,B,]2 [F,,^A,]4 | [E,^A,]2 [D,B,]2 [C,C]2 [B,,D]2 | %7
 [E,C]2 [F,C]2 [B,,D]4 |] %8
V:4
|: x8 | x8 | x8 | x8 :| x8 | (B,,^A,,) x6 | x8 | x8 |] %8

